X:220
T:Humors of Tulla, The
R:Reel
S:Bruce's 250
M:C|
K:D
d2Ad BdAB|d2fd edBc|d2Ad BdAd|(3Bcd ef g2fe|\
d2Ad BdAB|d2fd edBc|d2Ad BdAd|(3Bcd ef g2fg||\
a~f3 d~f3|a~f3 gee2|a~f3 dfed|(3Bcd ef g2fg|\
a~f3 d~f3|a~f3 gee2|a~f3 dfed|(3Bcd ef g4||
